X:1
T:Andante in C
T:Mauro Giuliani (1780 - 1840)
T:Tales of the River Bank
T:Opus 043.06
%%score ( 1 2 ) ( 3 4 )
L:1/8
Q:1/4=60
M:2/4
K:C
V:1 treble-8 nm="Notatie"
V:2 treble-8 
V:3 tab stafflines=6 strings=E2,A2,D3,G3,B3,E4 nm="Tab"
V:4 tab stafflines=6 strings=E2,A2,D3,G3,B3,E4 
V:1
 g/f/ |:S"^A" ee ff | gg ee | dd ee | (g/f/)e/f/ !>!d/G/A/B/ | c>d B/G/A/B/ | c>d B/G/A/B/ | %7
 cd/e/ f/d/e/c/ | e/d/c/B/ A/G/g/f/ || ee ff | gg ee | dd ee | g/f/e/f/ !>!d/G/A/B/ | %13
 c>^c d/G/A/B/ | c>^c d/G/A/B/ | !1!c/e/!2!A/!4!d/ G,/!2!!1![Ec]/G,/[DB]/!dacoda! | z/ c/G/E/ Ce |: %17
"^B" !1!c/e/e/e/ c/e/B/e/ | !3!A/e/e/e/ A/e/B/e/ | c/e/{/g}f/e/ d/c/B/A/ | ^G/A/B/G/ z/ E/e/!4!d/ | %21
 c/e/e/e/ c/e/B/e/ | A/e/e/e/ A/e/B/e/ | A/c/F/A/ D/B/E/^G/ | z/ A/E/C/ z/ c/B/A/ || %25
"^C" [^Ge]2 z/ f/e/d/ | [Ac]2 z/ A/B/c/ | (c/B/)g/f/ e/d/c/B/ | z/ A/c/e/ z/ ^G/e/d/ | %29
 c/e/e/e/ c/e/B/e/ | A/e/e/e/ A/e/B/e/ | A/c/F/A/ D/B/E/^G/ | z/ A/E/C/ z B/c/ ||"^D" !4!dd dd | %34
 e2 z/ G/c/B/ | !3!AA !4!dd | B>G !1!c>!3!A | B>G c>A | z/ G/!>!B/A/ G/B/!>!d/c/ | %39
 !0!B/!1!d/!>!!4!f/!3!e/ !1!d/!4!f/!>!!3!a/!1!g/ | %40
 (!1!f/!3!g/)(!0!e/!1!f/) .!3!d/.!0!e/(!1!c/!3!d/) | !0!B/!0!G/!4!^F/G/ A/B/c/!3!d/ | %42
 !1!c>d B/G/A/B/ | c>d B/G/A/B/ | c/e/A/d/ z/ [Ec]/ z/ [DB]/ |1 C/c/G/E/ Ce :|2 C/c/G/E/ C2 |: %47
"^E" !1!c'/!4!a/!2![ec'] !4!d'/!3!^g/!2![ed'] | c'/a/[ec'] !3!a!4!e'/!2!d'/ | %49
 c'/a/[ec'] d'/^g/[ed'] | c'/a/[ec'] !3!a!3!a/!1!g/ | !3!^f/!2!d/f !4!g/!2!d/g | %52
 !0!e/!0!G/!2!A/G/ !arpeggio!!3!!4!!2![^FB^d]2 | z/ !3!B/!2!g/B/ z/ !1!A/!2!^f/!1!A/ | %54
 z/ ^F/_e/F/ z/ !3!G/!4!=e | !1!g/!2!B/!4!e/!1!g/ !1!g/!0!B/!0!e/!4!a/ | %56
 !1!f/!2!A/!3!d/!1!f/ !1!f/!0!G/!3!d/!4!g/ | !0!e/!0!G/!3!d/e/ !1!g/!3!c/!4!f/e/ | %58
 g/G/d/g/ e/G/d/e/ | g/c/f/e/ g/G/d/g/ | e/G/d/e/ A/f/F/d/ | c/B/A/B/ cg/f/!D.S.! ||O c4 |] %63
V:2
 x |: C/G/C/G/ D/G/D/G/ | E/G/E/G/ C/G/C/G/ | B,/G/B,/G/ C/G/C/G/ | D4 | E/G/E/G/ F2 | %6
 E/G/E/G/ F2 | E/G/D/C/ B,C | G,4 || C/G/C/G/ D/G/D/G/ | E/G/E/G/ C/G/C/G/ | B,/G/B,/G/ C/G/C/G/ | %12
 D4 | E/G/E/G/ F2 | E/G/E/G/ F2 | E,!1!F, !3!G,G, | C2 C z |: !3!A2 A!2!E | !4!C2 CE | A2 D2 | %20
 E,2 E,2 | A2 AE | C2 CE | AF DE | A,2 A, z || z/ E,/^G,/B,/ E,2 | z/ A,/C/E/ A,2 | D4 | E2 E,2 | %29
 A2 AE | C2 CE | AF DE | A,2 A,2 || !2!B,/!0!G/!3!F/G/ B,/G/F/G/ | C/G/E/G/ C2 | %35
 !2!^F,/D/A,/D/ !2!F,/D/A,/D/ | !3!G,/D/!2!B,/D/ !2!^F,/D/A,/D/ | !3!G,/D/B,/D/ ^F,/D/A,/D/ | %38
 G,2 z2 | x4 | x4 | x4 | !2!E/G/E/G/ F2 | E/G/E/G/ F2 | E,F, G,G, |1 x4 :|2 x4 |: A,2 A,2 | %48
 A,2 !2!c2 | A,2 A,2 | A,2 !2!c2 | D2 !1!B,2 | !3!C2 !1!B,B, | E,2 E,2 | E,2 E,2 | E,2 !2!^C2 | %56
 D2 !2!B,2 | !2!C2 !0!A,2 | B,2 C2 | A,2 B,2 | C2 z2 | z2 C2 || C4 |] %63
V:3
 !1!G/!1!F/ |: !1!E!1!E !1!F!1!F | !1!G!1!G !1!E!1!E | !2!D!2!D !1!E!1!E | %4
 (!1!G/!1!F/)!1!E/!1!F/ !>!!2!D/!3!G,/!3!A,/!2!B,/ | !2!C>!2!D !2!B,/!3!G,/!3!A,/!2!B,/ | %6
 !2!C>!2!D !2!B,/!3!G,/!3!A,/!2!B,/ | !2!C!2!D/!1!E/ !1!F/!2!D/!1!E/!2!C/ | %8
 !1!E/!2!D/!2!C/!2!B,/ !3!A,/!3!G,/!1!G/!1!F/ || !1!E!1!E !1!F!1!F | !1!G!1!G !1!E!1!E | %11
 !2!D!2!D !1!E!1!E | (!1!G/!1!F/)!1!E/!1!F/ !>!!2!D/!3!G,/!3!A,/!2!B,/ | %13
 !2!C>!2!^C !2!D/!3!G,/!3!A,/!2!B,/ | !2!C>!2!^C !2!D/!3!G,/!3!A,/!2!B,/ | %15
 !2!C/!1!E/!3!A,/!2!D/ !6!x/[!4!E,!2!C]/!6!x/[!4!D,!2!B,]/ | x/ !2!C/!3!G,/!4!E,/ !5!C,!1!E |: %17
 !2!C/!1!E/!1!E/!1!E/ !2!C/!1!E/!2!B,/!1!E/ | !3!A,/!1!E/!1!E/!1!E/ !3!A,/!1!E/!2!B,/!1!E/ | %19
 !2!C/!1!E/{/!1!G}!1!F/!1!E/ !2!D/!2!C/!2!B,/!3!A,/ | %20
 !3!^G,/!3!A,/!2!B,/!3!G,/ x/ !4!E,/!1!E/!2!D/ | !2!C/!1!E/!1!E/!1!E/ !2!C/!1!E/!2!B,/!1!E/ | %22
 !3!A,/!1!E/!1!E/!1!E/ !3!A,/!1!E/!2!B,/!1!E/ | !3!A,/!2!C/!4!F,/!3!A,/ !4!D,/!2!B,/!4!E,/!3!^G,/ | %24
 x/ !3!A,/!4!E,/!5!C,/ x/ !2!C/!2!B,/!3!A,/ || [!3!^G,!1!E]2 x/ !1!F/!1!E/!2!D/ | %26
 [!3!A,!2!C]2 x/ !3!A,/!2!B,/!2!C/ | !2!C/!2!B,/!1!G/!1!F/ !1!E/!2!D/!2!C/!2!B,/ | %28
 x/ !3!A,/!2!C/!1!E/ x/ !3!^G,/!1!E/!2!D/ | !2!C/!1!E/!1!E/!1!E/ !2!C/!1!E/!2!B,/!1!E/ | %30
 !3!A,/!1!E/!1!E/!1!E/ !3!A,/!1!E/!2!B,/!1!E/ | !3!A,/!2!C/!4!F,/!3!A,/ !4!D,/!2!B,/!4!E,/!3!^G,/ | %32
 x/ !3!A,/!4!E,/!5!C,/ x !2!B,/!2!C/ || !2!D!2!D !2!D!2!D | !1!E2 x/ !3!G,/!2!C/!2!B,/ | %35
 !3!A,!3!A, !2!D!2!D | !2!B,>!3!G, !2!C>!3!A, | !2!B,>!3!G, !2!C>!3!A, | %38
 x/ !3!G,/!>!!2!B,/!3!A,/ !3!G,/!2!B,/!>!!2!D/!2!C/ | %39
 !2!B,/!2!D/!>!!2!F/!2!E/ !2!D/!2!F/!>!!1!A/!1!G/ | !1!F/!1!G/!1!E/!1!F/ .!2!D/.!1!E/!2!C/!2!D/ | %41
 !2!B,/!3!G,/!4!^F,/!3!G,/ !3!A,/!2!B,/!2!C/!2!D/ | !2!C>!2!D !2!B,/!3!G,/!3!A,/!2!B,/ | %43
 !2!C>!2!D !2!B,/!3!G,/!3!A,/!2!B,/ | !2!C/!1!E/!3!A,/!2!D/ x/ [!4!E,!2!C]/ x/ [!4!D,!2!B,]/ |1 %45
 !5!C,/!2!C/!3!G,/!4!E,/ !5!C,!1!E :|2 !5!C,/!2!C/!3!G,/!4!E,/ !5!C,2 |: %47
 !1!c/!2!A/[!3!E!1!c] !1!d/!2!^G/[!3!E!1!d] | !1!c/!2!A/[!3!E!1!c] !2!A!1!e/!1!d/ | %49
 !1!c/!2!A/[!3!E!1!c] !1!d/!2!^G/[!3!E!1!d] | !1!c/!2!A/[!3!E!1!c] !2!A!2!A/!2!=G/ | %51
 !2!^F/!3!D/!2!F !2!G/!3!D/!2!G | !1!E/!3!G,/!4!A,/!3!G,/ !arpeggio![!5!^F,!4!B,!3!_E]2 | %53
 x/ !4!B,/!2!G/!4!B,/ x/ !4!A,/!2!^F/!4!A,/ | x/ !4!^F,/!2!_E/!4!F,/ x/ !4!G,/!2!=E | %55
 !1!G/!3!B,/!2!E/!1!G/ !1!G/!2!B,/!1!E/!1!A/ | !1!F/!3!A,/!2!D/!1!F/ !1!F/!3!G,/!2!D/!1!G/ | %57
 !1!E/!3!G,/!2!D/!1!E/ !1!G/!3!C/!2!F/!1!E/ | !1!G/!3!G,/!2!D/!1!G/ !1!E/!3!G,/!2!D/!1!E/ | %59
 !1!G/!3!C/!2!F/!1!E/ !1!G/!3!G,/!2!D/!1!G/ | !1!E/!3!G,/!2!D/!1!E/ !3!A,/!1!F/!4!F,/!2!D/ | %61
 !2!C/!2!B,/!3!A,/!2!B,/ !2!C!1!G/!1!F/ || !2!C4 |] %63
V:4
 x |: !5!C,/!3!G,/!5!C,/!3!G,/ !4!D,/!3!G,/!4!D,/!3!G,/ | %2
 !4!E,/!3!G,/!4!E,/!3!G,/ !5!C,/!3!G,/!5!C,/!3!G,/ | %3
 !5!B,,/!3!G,/!5!B,,/!3!G,/ !5!C,/!3!G,/!5!C,/!3!G,/ | !4!D,4 | !4!E,/!3!G,/!4!E,/!3!G,/ !4!F,2 | %6
 !4!E,/!3!G,/!4!E,/!3!G,/ !4!F,2 | !4!E,/!3!G,/!4!D,/!5!C,/ !5!B,,!5!C, | !6!G,,4 || %9
 !5!C,/!3!G,/!5!C,/!3!G,/ !4!D,/!3!G,/!4!D,/!3!G,/ | %10
 !4!E,/!3!G,/!4!E,/!3!G,/ !5!C,/!3!G,/!5!C,/!3!G,/ | %11
 !5!B,,/!3!G,/!5!B,,/!3!G,/ !5!C,/!3!G,/!5!C,/!3!G,/ | !4!D,4 | !4!E,/!3!G,/!4!E,/!3!G,/ !4!F,2 | %14
 !4!E,/!3!G,/!4!E,/!3!G,/ !4!F,2 | !6!E,,!6!F,, !6!G,,!6!G,, | !5!C,2 !6!x x |: !3!A,2 !3!A,!4!E, | %18
 !5!C,2 !5!C,!4!E, | !3!A,2 !4!D,2 | !6!E,,2 !6!E,,2 | !3!A,2 !3!A,!4!E, | !5!C,2 !5!C,!4!E, | %23
 !4!x!5!x !5!x!5!x | !5!A,,2 !5!A,, x || x/ !6!E,,/!6!^G,,/!5!B,,/ !6!E,,2 | %26
 x/ !5!A,,/!5!C,/!4!E,/ !5!A,,2 | !4!D,4 | !4!E,2 !6!E,,2 | !3!A,2 !3!A,!4!E, | !5!C,2 !5!C,!4!E, | %31
 !4!x!5!x !5!x!5!x | !5!A,,2 !5!A,,2 || !5!B,,/!3!G,/!4!F,/!3!G,/ !5!B,,/!3!G,/!4!F,/!3!G,/ | %34
 !5!C,/!3!G,/!4!E,/!3!G,/ !5!C,2 | !6!^F,,/!4!D,/!5!A,,/!4!D,/ !6!F,,/!4!D,/!5!A,,/!4!D,/ | %36
 !6!G,,/!4!D,/!5!B,,/!4!D,/ !6!^F,,/!4!D,/!5!A,,/!4!D,/ | %37
 !6!G,,/!4!D,/!5!B,,/!4!D,/ !6!^F,,/!4!D,/!5!A,,/!4!D,/ | !6!G,,2 x2 | x4 | x4 | x4 | %42
 !4!E,/!3!G,/!4!E,/!3!G,/ !4!F,2 | !4!E,/!3!G,/!4!E,/!3!G,/ !4!F,2 | !6!E,,!6!F,, !6!G,,!6!G,, |1 %45
 x4 :|2 x4 |: !5!A,,2 !5!A,,2 | !5!A,,2 !4!C2 | !5!A,,2 !5!A,,2 | !5!A,,2 !4!C2 | !4!D,2 !6!B,,2 | %52
 !6!C,2 !6!B,,!6!B,, | !6!E,,2 !6!E,,2 | !6!E,,2 !6!E,,2 | !6!E,,2 !5!^C,2 | !4!D,2 !5!B,,2 | %57
 !5!C,2 !5!A,,2 | !5!B,,2 !5!C,2 | !5!A,,2 !5!B,,2 | !5!C,2 x2 | x2 !5!C,2 || !5!C,4 |] %63

